!!!OTL: Lily of the West
!!!ONM: 42.
**kern
*clefG2
*k[b-]
*F:
*M6/8
*MM120
{8c
=1
4f
8a
4g
8a
=2
4f
8f
4c}
{8c
=3
4d
8f
4e
8g
=4
4.f
4r}
{8a
=5
4cc
8cc
4a
8cc
=6
4ff
8ff
4ee}
{8a
=7
4cc
8cc
(8dd
8cc)
8a
=8
4.cc
4r}
{8a
=9
4cc
8cc
(8a
8b-)
8cc
=10
4ff
8ff
(8ff
8ee)}
{8a
=11
4cc
8dd
(8dd
8cc)
8a
=12
4.cc
4r}
{8f
=13
4g
8dd
4cc
8dd
=14
4.b-
4f}
{8c
=15
4d
8f
4f
8e
=16
4.f
4r
8r}
==
*-
!!!CNT: Folksongs of Maritime Canada
!!!MRD: 1928///-1932///
!!!OCL: Helen Creighton
!!!YOR: Songs and Ballads from Nova Scotia
!!!PPR: J.M. Dent & Sons, Limited
!!!PPP: Toronto, Canada
!!!PDT: 1932///
!!!reprint: Dover Publications, 1992: ISBN 0-486-21703-5
!!!ENC1: Craig Stuart Sapp (music and bibliographic data)                       
!!!ENC2: Marcus Pearce (phrase markings and key designations)                   
!!!ENC3: Darrell Conklin (phrase markings and key designations)   
!!!END: 2002/04/10/
!!!EEV: 2004/06/05
!!!MPN: Ms. Ruth Purdy
!!!PPG: 84
!!!EFL: 42/152
!!!ARE: Canada; Nova Scotia
!!!verses: 7
!!!VTS: 1410100956
